X:2261
T:Glen Ogle
O:england
M:4/4
L:1/8
R:reel
K:D
d2fd B2ed|cABc dAFD|d2fd B2ed|1 cABc d2dA:|2 cABc d2de||
d2fd B2ed|cABc dAFD|d2fd B2ed|1 cABc d2dA:|2 cABc d2de||
f2df gfed|cABc dAFD|f2df gfed|cABc d2de|
f2df gfed|cABc dAFD|dfdf cecA|1 Bgec D2de:|2 Bgec D4||


